SVG/ico__cart.svg

<svg xmlns="http://www.w3.org/2000/svg" viewBox="0 0 240 240">
  <path d="M169,60c-4.63-22.82-24.81-40-49-40s-44.36,17.18-49,40h-31v160h160V60h-31ZM120,40c13.06,0,24.17,8.35,28.29,20h-56.57c4.12-11.65,15.23-20,28.29-20ZM180,200H60v-120h120v120Z"/>
</svg>

<svg width="240" height="240" viewBox="0 0 240 240" fill="none" xmlns="http://www.w3.org/2000/svg">
<path d="M169 60C164.36 37.18 144.19 20 120 20C95.81 20 75.64 37.18 71 60H40V220H200V60H169ZM120 40C133.06 40 144.17 48.35 148.29 60H91.72C95.84 48.35 106.95 40 120.01 40H120ZM180 200H60V80H180V200Z" fill="black"/>
</svg>
